X: 2571
T: Ballykinleer
R: reel
M: 4/4
K: Amajor
c2|BAFD EA,CE|Acag fecA|BF F/F/F BFcB|AECA, CEAc|
BF F/F/F ~E3 F|Acag fece|fdaf eac'a|babc' a2 cB|
AF F/F/F EA,CE|Acag fecA|BF F/F/F BFcB|AECA, CEAc|
BF F/F/F ~E3 F|Acag fece|fdaf eac'a|babc' .a2 e2||
ab c'/b/a bc'af|eaec ABce|fc c/c/c fcec|{B2c2}B2 Ac BAFE|
A,C C/C/C B,D D/D/D|CE E/E/E DF F/F/F|EGBd cEGB|A/A/A GB A2 cd|
eac'a {b2c'2}b2 af|eaec ABce|fc c/c/c fcec|{B2c2}B2 Ac BAFE|
A,C C/C/C B,D D/D/D|CE E/E/E DF F/F/F|EGBd cEGB|A/A/A cB .A2 c2||

